X: 1341
T: An Phis Fhliuch
R: slip jig
M: 9/8
K: Gmajor
FGA {B}AFA c2A|{^c}BAG FAF {B}GED|FGA {B}AFA d2z|d/e/fe dcA GED|
FGA {B}AFA czA|{^c}BAG FAF {B}GED|FGA {B}AFA d2z|d/e/fe dcA GED|
d^cd ege d2z|d^cd ~f3 ~g3|aza ged c2A|{^c}BAG FAF {B}GED|
dzd ege d2z|d^cd ~f3 gzg|~a3 ged czA|{^c}BAG FAF {B}GED|
FGA {B}AFD {B}AFD|{B}AFD {B}AFA GED|FzA {B}AFA c2A|BAG FAF {B}GED|
FzA {B}AFD {B}AFD|{B}AFD {B}AFA GED|FGA {B}AFA czA|{^c}BAG FAF {B}GED|
~D3 ~D3 c2z|c2B c2A GED|~D3 ~D3 d2z|d g/f/e dcA GED|
~d3 ~d3 c2z|c2B c2A GED|~D3 DFA d2A|dfe dcA GED|
dzd ege c2A|d^cd ~f3 ~g3|aza ged c2A|{^c}BAG FAF {B}GED|
dzd ege c2z|d^cd ~f3 ~g3|aza ged czA|BAG F/G/AF GEA|D6 z3||

